images/yt.svg

<svg width="31" height="31" viewBox="0 0 31 31" fill="none" xmlns="http://www.w3.org/2000/svg">
<path d="M30.0993 7.32324C30.0993 7.32324 29.7889 4.3914 28.9097 3.09597C27.7717 1.39143 26.4786 1.39143 25.9097 1.32323C21.72 0.914178 15.4097 0.845978 15.4097 0.845978C15.4097 0.845978 9.0993 0.914178 4.90967 1.32323C4.34072 1.39143 3.04762 1.45963 1.90967 3.09597C0.978613 4.39147 0.720039 7.32324 0.720039 7.32324C0.720039 7.32324 0.409668 10.8005 0.409668 14.2778V17.4824C0.409668 20.9597 0.720039 24.3688 0.720039 24.3688C0.720039 24.3688 1.03041 27.3006 1.90967 28.5961C3.04762 30.3006 4.54762 30.2324 5.22004 30.437C7.5993 30.7778 15.4097 30.846 15.4097 30.846C15.4097 30.846 21.72 30.846 25.9097 30.3687C26.4786 30.3005 27.7717 30.2323 28.9097 28.596C29.789 27.3006 30.0993 24.3687 30.0993 24.3687C30.0993 24.3687 30.4097 20.8914 30.4097 17.4823V14.2778C30.4097 10.8005 30.0993 7.32324 30.0993 7.32324Z" fill="#D8362A"/>
<path d="M11.2432 9.71649V21.9756L21.9769 15.9873L11.2432 9.71649Z" fill="white"/>
</svg>

<svg width="31" height="31" fill="none" xmlns="http://www.w3.org/2000/svg"><path d="M30.1 7.323s-.311-2.932-1.19-4.227c-1.138-1.705-2.431-1.705-3-1.773-4.19-.409-10.5-.477-10.5-.477s-6.31.068-10.5.477c-.57.068-1.862.137-3 1.773C.979 4.391.72 7.323.72 7.323S.41 10.8.41 14.278v3.204c0 3.478.31 6.887.31 6.887s.31 2.932 1.19 4.227c1.138 1.705 2.638 1.636 3.31 1.841 2.38.34 10.19.409 10.19.409s6.31 0 10.5-.477c.569-.069 1.862-.137 3-1.773.879-1.295 1.19-4.227 1.19-4.227s.31-3.478.31-6.887v-3.204c0-3.478-.31-6.955-.31-6.955z" fill="#D8362A"/><path d="M11.243 9.716v12.26l10.734-5.989-10.734-6.27z" fill="#fff"/></svg>
